.local/share/icons/Gruvbox-Plus-Dark/panel/16/gpmdp-tray-pause.svg

<svg xmlns="http://www.w3.org/2000/svg" width="16" height="16" version="1.1">
 <defs>
  <style id="current-color-scheme" type="text/css">
   .ColorScheme-Text { color:#ebdbb2; } .ColorScheme-Highlight { color:#458588; }
  </style>
 </defs>
 <path style="fill:currentColor" class="ColorScheme-Text" d="M 2.7128906 1 C 2.532375 1.0039374 2.3755848 1.0700173 2.2578125 1.1894531 C 2.090497 1.3565758 2 1.628433 2 1.9785156 L 2 14.017578 C 2 14.367573 2.098211 14.637565 2.2578125 14.804688 C 2.5009857 15.05143 2.88125 15.075907 3.3144531 14.8125 L 13.453125 8.78125 C 14.183416 8.351631 14.183416 7.6523373 13.453125 7.2148438 L 13.042969 6.96875 C 13.042152 6.9693437 12.887032 6.8763187 12.857422 6.859375 C 12.339653 4.6498869 10.367368 3 8 3 C 7.5396948 3 7.1029903 3.0827634 6.6796875 3.1992188 C 5.1333382 2.2725661 3.3144531 1.1816406 3.3144531 1.1816406 C 3.0978516 1.0543299 2.8934062 0.99597506 2.7128906 1 z M 8 4 L 8.0195312 4.0019531 C 9.6026524 4.0097231 10.956304 4.9429666 11.597656 6.2832031 C 11.633036 6.3569351 11.674346 6.4283305 11.705078 6.5039062 C 11.705845 6.5057963 11.706231 6.5078756 11.707031 6.5097656 C 11.784931 6.7032852 11.845447 6.9042012 11.892578 7.1113281 C 11.906488 7.1715451 11.916624 7.2321352 11.927734 7.2929688 C 11.968878 7.5231774 12 7.757945 12 8 C 12 8.1690928 11.973485 8.3305646 11.953125 8.4941406 L 6.546875 11.716797 C 6.528911 11.709797 6.5100235 11.704546 6.4921875 11.697266 C 6.374646 11.649356 6.2633344 11.591173 6.1523438 11.533203 C 6.0739387 11.492093 5.9951547 11.452303 5.9199219 11.40625 C 5.8277839 11.35006 5.7409391 11.287579 5.6542969 11.224609 C 5.5690199 11.162429 5.4842822 11.099821 5.4042969 11.03125 C 5.3277969 10.96578 5.2546685 10.896945 5.1835938 10.826172 C 5.1101645 10.752977 5.0382913 10.678297 4.9707031 10.599609 C 4.901985 10.519604 4.8375127 10.436633 4.7753906 10.351562 C 4.7136141 10.266977 4.6566769 10.179281 4.6015625 10.089844 C 4.5490016 10.004504 4.4972448 9.919243 4.4511719 9.8300781 C 4.4034667 9.7377285 4.3628127 9.6412901 4.3222656 9.5449219 C 4.2812301 9.4474644 4.2383822 9.3508458 4.2050781 9.25 C 4.1685704 9.1390944 4.1440186 9.0231573 4.1171875 8.9082031 C 4.096413 8.8196987 4.0694482 8.7329098 4.0546875 8.6425781 C 4.0208121 8.4330969 4 8.2190438 4 8 C 4 7.7238576 4.0287478 7.4537497 4.0820312 7.1933594 C 4.4550162 5.3706269 6.0670033 3.9999999 8 4 z M 8 6 A 2 2 0 0 0 6 8 A 2 2 0 0 0 8 10 A 2 2 0 0 0 10 8 A 2 2 0 0 0 8 6 z M 11 11 L 11 16 L 13 16 L 13 11 L 11 11 z M 14 11 L 14 16 L 16 16 L 16 11 L 14 11 z"/>
</svg>

<svg width="16" height="16" version="1.1" xmlns="http://www.w3.org/2000/svg">
  <defs>
    <style id="current-color-scheme" type="text/css">.ColorScheme-Text { color:#ebdbb2; } .ColorScheme-Highlight { color:#458588; } .ColorScheme-NeutralText { color:#fe8019; } .ColorScheme-PositiveText { color:#689d6a; } .ColorScheme-NegativeText { color:#fb4934; }</style>
  </defs>
  <path class="ColorScheme-Text" d="m2.713 1c-0.1805 0.0039-0.3373 0.07-0.4551 0.1895-0.1673 0.1671-0.2578 0.4389-0.2578 0.789v12.04c0 0.35 0.0982 0.62 0.2578 0.787 0.2432 0.246 0.6234 0.271 1.057 8e-3l10.14-6.032c0.73-0.4296 0.73-1.129 0-1.566l-0.596-0.3554c-0.517-2.21-2.49-3.859-4.857-3.859-0.4603 0-0.897 0.0828-1.32 0.1992-1.546-0.9266-3.365-2.018-3.365-2.018-0.2166-0.1273-0.4211-0.1856-0.6016-0.1816zm5.287 3c1.596 0 2.956 0.943 3.598 2.283 0.035 0.0737 0.402 0.8257 0.402 1.717 0 0.1691-0.027 0.3306-0.047 0.4941l-5.406 3.223c-0.6463-0.173-2.547-1.42-2.547-3.717 0-0.2761 0.0287-0.5463 0.082-0.8066 0.373-1.823 1.995-3.193 3.918-3.193zm0 2c-1.105 0-2 0.8954-2 2s0.8954 2 2 2 2-0.8952 2-2-0.8954-2-2-2zm3 5v5h2v-5zm3 0v5h2v-5z" fill="currentColor"/>
</svg>
